!!!COM: Haydn, Franz Joseph
!!!OTL: String Quartet in F Major
!!!OPS: Opus 50
!!!ONM: No. 5
!!!OMD: Menuetto
!!!OMV: 3
!!!SCT: H III:48
!!!SCA: Thematisch-bibliographisches Werkevererzeichnis (A. van Hoboken)
!!!YOR: Trautwein Edition
!!!ENC: Frances Bennion
!!!CDT: 1732/3/31/-1809/5/31/
!!!CNT: Oesterreich
!!!YEC: Copyright (c) 1994, 2000 Center for Computer Assisted Research in the Humanities
!!!YEM: Rights to all derivative editions reserved.
!!!YEM: Refer to licensing agreement for further details.
!!!YEN: United States of America
**kern	**kern	**kern	**kern
*k[b-]	*k[b-]	*k[b-]	*k[b-]
*F:	*F:	*F:	*F:
*clefF4	*clefC3	*clefG	*clefG
*M3/4	*M3/4	*M3/4	*M3/4
4..r	4..r	4..r	4..r
16r	16r	16r	16cc
4r	4r	4r	4cc
=1	=1	=1	=1
2.r	2.r	2.r	4dd
.	.	.	4b
.	.	.	4cc
=2	=2	=2	=2
2.r	2.r	2.r	4b-
.	.	.	4g
.	.	.	4e
=3	=3	=3	=3
4r	4r	4r	2.d
4E	4G	4B-	.
4E	4G	4B-	.
=4	=4	=4	=4
4E	4G	4B-	4c
2r	2r	2r	8.r
.	.	.	16c
.	.	.	4c
=5	=5	=5	=5
4r	4r	4r	4f
4F	4c	4A	8.r
.	.	.	16c
4F	4c	4A	4c
=6	=6	=6	=6
4r	4r	4r	4g
4E	4c	4G	8.r
.	.	.	16c
4E	4c	4G	4c
=7	=7	=7	=7
4F	4c	4r	4a
4D	4a	4f	4dd
4G	4f	4d	4b
=8	=8	=8	=8
4C	4e	4e	4cc
8CC	2r	2r	8.r
4.r	.	.	.
.	.	.	16cc
.	.	.	4cc
=9	=9	=9	=9
2.r	4a	4cc	4ff
.	4g	4b-	4ee
.	4f	4a	4ff
=10	=10	=10	=10
2.r	2e	2.cc	4ff#
.	.	.	4gg
.	4f	.	4aa
=11	=11	=11	=11
2.r	[2.d	[2.f	2.ccc
=12	=12	=12	=12
2.r	2d]	2f]	4bb-
.	.	.	8.r
.	.	.	16aa
.	4c	4e	4aa
=13	=13	=13	=13
2.r	4B-	4d	4ddd
.	4b-	4dd	8.r
.	.	.	16gg
.	4b-	4dd	4gg
=14	=14	=14	=14
2.r	4r	4r	4ccc
.	4a	4cc	8.r
.	.	.	16ff
.	4a	4cc	4ff
=15	=15	=15	=15
2.r	4g	4b-	4ee
.	4e	4g	4bb-
.	4f	4f	4aa
=16	=16	=16	=16
[2.C	4c	4e	4gg
.	4d	4f	8.r
.	.	.	16ccc
.	4e	4g	4ccc
=17	=17	=17	=17
2.C_	4f	4a-	4aa-
.	4g	4b-	4ee
.	4f	4a-	4ff
=18	=18	=18	=18
2.C_	4e	4g	4cc
.	4e	4cc	8.r
.	.	.	16ee
.	4g	4b-	4ee
=19	=19	=19	=19
2.C_	2c	4a-	4ff
.	.	4g	4gg
.	4B	4f	4aa-
=20	=20	=20	=20
2.C_	4c	4e	4gg
.	2r	4c	8.r
.	.	.	16gg
.	.	4e	4gg
=21	=21	=21	=21
2.C_	2.r	4f	4aa-
.	.	4c	8.r
.	.	.	16aa
.	.	4f#	4aa
=22	=22	=22	=22
2.C_	2.r	4g	4bb-
.	.	4c	8.r
.	.	.	16bb
.	.	4g#	4bb
=23	=23	=23	=23
2.C_	2r	4a	4ccc
.	.	4c	8.r
.	.	.	16ccc#
.	4cc#	4a	4ccc#
=24	=24	=24	=24
2.C_	4dd	4b-	4ddd
.	4b	4g#	4bb
.	4cc	4a	4ccc
=25	=25	=25	=25
2.C_	2g	[2.e	4bb-
.	.	.	4gg
.	4a	.	4ee
=26	=26	=26	=26
2C]	[2.b-	2e]	2.dd
4D	.	4f	.
=27	=27	=27	=27
4E	4b-]	4g	4cc
2r	2r	2r	8.r
.	.	.	16cc
.	.	.	4cc
=28	=28	=28	=28
4r	4r	4r	4ff
4F	4c	4a	8.r
.	.	.	16ff
4F	4c	4a	4ff
=29	=29	=29	=29
4r	4r	4r	4aa
4E-	4a	4cc	8.r
.	.	.	16ff
4E-	4a	4cc	4ff
=30	=30	=30	=30
4r	4r	4r	4bb-
4D	4f	4b-	8.r
.	.	.	16ddd
4D	4f	4b-	4ddd
=31	=31	=31	=31
4r	4r	4r	4.fff
4BB-	4d	4f	.
.	.	.	8ddd
4BB-	4d	4g	8bb-
.	.	.	8gg
=32	=32	=32	=32
2.C	2c	2a	2ff
.	4e	4b-	4gg
=33	=33	=33	=33
4F	4f	4a	4ff
4FF	2r	4..r	8.r
.	.	.	16cc
4r	.	.	4cc
.	.	16f	.
=34	=34	=34	=34
2.r	2.r	4f	4dd
.	.	4g	4b
.	.	4e	4cc
=35	=35	=35	=35
2.r	2.r	4f	4a
.	.	4d	8.b-
.	.	.	16g#
.	.	4e	4g#
=36	=36	=36	=36
2.r	2.r	4c#	4a
.	.	4d	4f#
.	.	4B-	4g
=37	=37	=37	=37
2r	2r	4c	4e
.	.	4A	4f
4E	4c	4g	4b-
=38	=38	=38	=38
4F	4c	4f	4a
4r	4r	4r	4r
4BB-	4f	4b-	4dd
=39	=39	=39	=39
4r	4r	4r	4r
4C	4f	4a	4cc
4r	4r	4r	4r
=40	=40	=40	=40
4C	4c	4b- 4ee 4g	4b- 4ee 4g
4r	4r	4r	4r
4FF	4F	4ff 4a 4f	4ff 4a 4f
=41	=41	=41	=41
*f:	*f:	*f:	*f:
4..r	4..r	4..r	4..r
16c	16cc	16cc	16cc
4c	4cc	4cc	4cc
=42	=42	=42	=42
4d-	4dd-	4dd-	4dd-
4B	4b	4b	4b
4c	4cc	4cc	4cc
=43	=43	=43	=43
4B-	4b-	4b-	4b-
4G	4g	4g	4g
4E	4e	4e	4e
=44	=44	=44	=44
2D-	2d-	2d-	2.d-
4DD-	4F	4B-	.
=45	=45	=45	=45
2.EE-	2E-	2A-	2c
.	4D-	4G	4B-
=46	=46	=46	=46
2AA-	4C	4A-	4A-
.	2r	2r	4c
4r	.	.	4e-
=47	=47	=47	=47
2.r	2.r	2.r	4a-
.	.	.	8cc
.	.	.	16r
.	.	.	16ee-
.	.	.	4ee-
=48	=48	=48	=48
2.r	4r	4r	4ff
.	4a-	4b-	4dd
.	4g	4b-	4ee-
=49	=49	=49	=49
2.r	4r	4r	4dd-
.	4f	4a-	4b
.	4e-	4g	4cc
=50	=50	=50	=50
4r	4r	4r	4b-
4d-	4B-	4e-	4g
4c	4c	4e-	4a-
=51	=51	=51	=51
2.B-	2.f	2.a-	2ee-
.	.	.	4dd
=52	=52	=52	=52
4G	2.e-	2b-	2dd-
4E-	.	.	.
4A-	.	4a-	4cc
=53	=53	=53	=53
2.D-	4f	2f	4b-
.	4d-	.	4dd-
.	4B-	4d-	4ff
=54	=54	=54	=54
2.E-	2e-	2c	2a-
.	4G	4d-	4b-
=55	=55	=55	=55
4AA-	4A-	4c	4a-
2r	2r	2r	8.r
.	.	.	16e-
.	.	.	4e-
=56	=56	=56	=56
2.r	4c	4e-	4a-
.	4B-	4d-	4g
.	4A-	4c	4a-
=57	=57	=57	=57
4D	4D	4a-	4cc
4E-	4E-	4g	8b-
.	.	.	16r
.	.	.	16e-
4r	4r	4r	4e-
=58	=58	=58	=58
2.r	4d-	4f	4b-
.	4c	4e-	4a
.	4B-	4d-	4b-
=59	=59	=59	=59
4E	4E	4b-	4dd-
4F	4F	8a	8cc
.	.	4.r	16r
.	.	.	16ff
4r	4r	.	4ff
=60	=60	=60	=60
2.r	4r	4r	4gg-
.	4b-	4dd-	4ee
.	4a	4cc	4ff
=61	=61	=61	=61
4r	4r	4r	4ee-
4F	4e-	4a	4cc
4BB-	4d-	4b-	4dd-
=62	=62	=62	=62
4E-	4r	4g-	4cc
4C	4g-	4e-	4ee-
4F	4e-	4c	4a
=63	=63	=63	=63
4B-	4d-	4d-	4b-
8.BB-	8.r	8.r	8.r
16B-	16b-	16b-	16bb-
4B-	4b-	4b-	4bb-
=64	=64	=64	=64
4d-	4dd-	4dd-	4ddd-
4B-	4b-	4b-	4bb-
4G	4g	4g	4gg
=65	=65	=65	=65
4E	4e	2e	4ee
4C	4g	.	4ccc
4E	4c	4g	4bb-
=66	=66	=66	=66
4F	4c	2g	2bb-
4D-	4d-	.	.
4BB	4B	4f	4aa-
=67	=67	=67	=67
4C	4c	4e	4gg
4CC	2r	2r	8.r
.	.	.	16cc
4r	.	.	4cc
=68	=68	=68	=68
2.r	4a-	4cc	4ff
.	4g	4b-	4ee
.	4f	4a-	4ff
=69	=69	=69	=69
2.r	2e	2cc	4aa-
.	.	.	4gg
.	4e-	4f	4aa
=70	=70	=70	=70
2r	2d-	2f	4ccc
.	.	.	4bb-
4A	4f	4cc	4ccc
=71	=71	=71	=71
2.B-	[2.f	2.cc	2.eee-
=72	=72	=72	=72
4BB-	4f]	4b-	4ddd-
2r	2r	2r	8.r
.	.	.	16bb-
.	.	.	4bb-
=73	=73	=73	=73
2r	2r	2r	4ddd-
.	.	.	4bb-
4B-	4d-	4g	4gg
=74	=74	=74	=74
2.c	2.c	2a-	2ff
.	.	8b-	8gg
.	.	8g	8ee
=75	=75	=75	=75
4F	4A-	4f	4ff
8.r	2r	2r	2r
16c	.	.	.
4c	.	.	.
=76	=76	=76	=76
4d-	2.r	4r	4r
4B	.	4a-	4ff
4c	.	4g	4ee
=77	=77	=77	=77
4B-	2.r	4r	4r
4G	.	4b-	4gg
4E	.	4b-	4gg
=78	=78	=78	=78
2.D-	4r	4r	4r
.	4b-	4ff	4bb-
.	4b-	4ff	4bb-
=79	=79	=79	=79
2.C	4.b-	2.ee	4.ddd-
.	8a-	.	8ccc
.	4g	.	4bb-
=80	=80	=80	=80
4D-	4f	4ff	4aa-
4BB-	4d-	4gg	4bb-
4C	4B-	4ee	4gg
=81	=81	=81	=81
4FF	4A-	4ff	4ff
2r	2r	2r	2r
==	==	==	==
*-	*-	*-	*-
!!!RWG1: This file contains only pitch and duration data.
!!!RWG2: Transposing instruments are not transposed.
!!!RWG3: Spines may have incompatible meters.
!!!RWG4: Durations of rests and tied notes may be interpreted.
!!!RWG: Key is interpreted using the Humdrum key tool.
!!!GTL: 6 Quartetti ("Prussian")
!!!OPT: Ein Traum
!!!AFT: stage1
!!!END: 1997/04/15
!!!KEY: 375187326
!!!EMD: Converted from MuseData to Humdrum Dec 16, 2000, by Andreas Kornstaedt using muse2kern.
!!!EMD: Manual editing by Craig Sapp, Nov 2001
